X:1
T:Strike The Viol
T:z.323, No. 5
T:Come ye Sons of Art
T:Henry Purcell (1659-1695)
T:from Z.323, No.5 adapted for Woodwind Quartet 
T:twoflutes 2019 / Felix Scharpf / https://commons.wikimedia.org/wiki/File:Henry_Purcell_Closterman.jpg
T:twoflutes 2019 / Felix Scharpf / https://commons.wikimedia.org/wiki/File:Henry_Purcell_Closterman.jpg
T:twoflutes 2019 / Felix Scharpf / https://commons.wikimedia.org/wiki/File:Henry_Purcell_Closterman.jpg
T:twoflutes 2019 / Felix Scharpf / https://commons.wikimedia.org/wiki/File:Henry_Purcell_Closterman.jpg
C:Henry Purcell (1659-1695()
Z:twoflutes 2019 / Felix Scharpf / https://commons.wikimedia.org/wiki/File:Henry_Purcell_Closterman.jpg
%%score [ 1 2 3 4 ]
L:1/8
Q:1/4=120
M:3/4
K:F
V:1 treble nm="Flöte" snm="Fl."
V:2 treble nm="Oboe" snm="Ob."
V:3 treble transpose=-7 nm="Englischhorn" snm="E.hn."
V:4 bass nm="Fagott" snm="Fgt."
V:1
 z6 | z6 | z6 | z6 |: (a>g) f2 (ge) | (f2 d3) z |!mp! (a>g) f2 (ge) | (f2 d3) z | f3 z (e/f/.g) | %9
 e3 z!mf! (fc) | (d/e/.f) (ed) (Pc>B) | A4 z2 | (d^cd).f e2 | f4 z2 |!p! (d^cd).f e2 | f4 z2 | %16
!mf! (fef).a g2 | a4 (gf) | .e(f/d/) (e/f/).g (Pf>e) | f4 z2 |"_dim." (fef).a g2 | a4 (gf) | %22
 .e(f/d/) (e/f/).g (Pf>e) |1 f4 z2 :|2!mp! f4 z2 |: z2!mf! c2 c2 | (c3 d) c2 | (de)(de) f2 | %28
 e4 z2 | z2"_cresc." g2 g2 | (g3 a) g2 | (ga) (Pa3 g/a/) | b4 g2 | z2 (e2 a2) | z2 d2 (fe) | %35
 .^c(A/=B/) (.cB) (c/B/).A | .d(d/e/) (.fe) (f/e/).d | .ge/f/ (.gf) g/f/.e | .ff/g/ (.ag) a/g/.f | %39
 (bagfed) | (d>e) (d/e/.f) (.ed) |1 d4 z2 :|2 d4 z2 | z6[Q:1/4=80][Q:1/4=70] |[Q:1/4=60] z6 |] %45
V:2
 z2!mf! (f2 e2) | z2 (d2 ^c2) | z2 (f2 e2) | z2 (d2 ^c2) |: (f>e) d2 (e^c) | (d2 A3) z | %6
!mp! (f>e) d2 (e^c) | (d2 A3) z | A3 z B2 | G3 z!mf! c2 | (Bd)(cB) (A>G) | F4 z2 | A4 A2 | A4 z2 | %14
!p! A4 A2 | A4 z2 |!mf! A4 c2 | c4 c2 | (cB) (B3 c) | A4 z2 |"_dim." (AGA).B c2 | c4 c2 | %22
 cB (B3 c) |1 A4 z2 :|2!mp! A4 z2 |: z2 (A2 G2) | (A3 =B) c2 | (c4 =B2) | c4 z2 | %29
 z2"_cresc." (e2 d2) | e4 f2 | (e^f) (Pf3 e/f/) | g4 d2 | z2 c2 c2 | z2 B2 B2 | (AE) A3 A | %36
 A2 d3 d | .B(G/A/) (.BA) (B/A/).G | .F(A/B/) (.cBc)d | (d2 ^c2 d2) | A3 d ^c2 |1 d4 z2 :|2 d4 z2 | %43
 z6 | z6 |] %45
V:3
[K:C] z2!mf! (e2 d2) | z2 (c2 B2) | z2 (e2 d2) | z2 (c2 B2) |: A2 f2 e2 | (e2 c3) z | %6
!mp! (e2 f2 e2) | (e2 c3) z | A3 z (A2 | G3) z!mf! c2 | c2 c2 B2 | (c2 A3) z | c3 A (B^G) | A4 z2 | %14
!p! c3 A (B^G) | A4 z2 |!mf! A4 d2 | G4 e2 | d2 (d3 e) | c4 z2 |"_dim." c4 d2 | G4 e2 | %22
 d2 (d3 e) |1 c4 z2 :|2!mp! c4 z2 |: z2!mf! (c2 B2) | (c4 d2) | (e4 d2) | d4 z2 | %29
 z2"_cresc." (g2 ^f2) | g4 a2 | g2 g4 | f4 f2 | z2 (d2 c2) | z2 d2 d2 | .B(^G/A/) (.BA) (B/A/).G | %36
 .A(c/d/) (.ed) (e/d/).c | d2 A2 (GF) | G2 z2 z c | B2 z e (dc) | (c3 f/e/) (.de) |1 c2 A2 z2 :|2 %42
 c2 A2 z2 | z6 | z6 |] %45
V:4
!mf! D,2 z D .^C.A, | D2 z G, A,2 | D,2 z D .^C.A, | D2 z G, A,2 |: D,2 z D .^C.A, | %5
 D2 z!mp! G, A,2 | D,2 z D .^C.A, | D2 z G, A,2 | D,2 z D .B,.G, | C2 z!mf! C .A,.F, | %10
 B,2 z G, .C.C, | F,2 z G, A,2 | D,2 z D .^C.A, | D2 z G, A,2 |!p! D,2 z D .^C.A, | D2 z G, A,2 | %16
!mf! D,2 z F, .E,.C, | F,2 z G, .A,.F, | B,2 z G, .C.C, | F,2 z B, .C.C, |"_dim." F,2 z F, .E,.C, | %21
 F,2 z G, .A,.F, | B,2 z G, .C.C, |1 F,2 z G, .F,.E, :|2!mp! F,2 z!mf! F, E,C, |: F,2 z B, .C.C, | %26
 F,2 z F, .E,.C, | F,2 z D, G,2 | C,2 z C .=B,.G, | C2"_cresc." z F, G,2 | C,2 z C .=B,.G, | %31
 C2 z A, .D.D, | G,2 z A, .B,.G, | C2 z C .A,.F, | B,2 z B, .G,.E, | A,2 z E, .A,.E, | %36
 F,2 z A, .D.A, | B,2 z G, .C.G, | A,2 z E, .F,.D, | G,2 z A, .B,.G, | A,2 z G, A,2 |1 %41
 D,2 z F, .E,.C, :|2 D,2 z D .^C.A, | D2 z G, A,2 | D,6 |] %45

